assets/icons/notes-fill.svg

<svg width="20" height="20" viewBox="0 0 20 20" fill="none" xmlns="http://www.w3.org/2000/svg">
<path d="M10.8745 1.04199C12.4085 1.04198 13.6236 1.04198 14.5741 1.16976C15.551 1.30113 16.3414 1.57807 16.965 2.20166C17.5886 2.82525 17.8655 3.61569 17.9969 4.59261C18.1247 5.54307 18.1247 6.75815 18.1247 8.29216V11.7085C18.1247 13.2425 18.1247 14.4576 17.9969 15.4081C17.8655 16.385 17.5886 17.1754 16.965 17.799C16.3414 18.4226 15.551 18.6995 14.5741 18.8309C13.6236 18.9587 12.4085 18.9587 10.8745 18.9587H10.5832C9.04917 18.9587 7.83408 18.9587 6.88362 18.8309C5.90671 18.6995 5.11627 18.4226 4.49267 17.799C3.86908 17.1754 3.59214 16.385 3.46077 15.4081C3.33299 14.4576 3.333 13.2425 3.33301 11.7085V8.29216C3.333 6.75814 3.33299 5.54307 3.46077 4.59261C3.59214 3.61569 3.86908 2.82525 4.49267 2.20166C5.11627 1.57807 5.90671 1.30113 6.88362 1.16976C7.83408 1.04198 9.04917 1.04198 10.5832 1.04199H10.8745ZM8.33301 8.54199C7.98783 8.54199 7.70801 8.82183 7.70801 9.16699C7.70801 9.51216 7.98783 9.79199 8.33301 9.79199H11.2497C11.5948 9.79199 11.8747 9.51216 11.8747 9.16699C11.8747 8.82183 11.5948 8.54199 11.2497 8.54199H8.33301ZM8.33301 5.20866C7.98783 5.20866 7.70801 5.48848 7.70801 5.83366C7.70801 6.17883 7.98783 6.45866 8.33301 6.45866H14.1663C14.5115 6.45866 14.7913 6.17883 14.7913 5.83366C14.7913 5.48848 14.5115 5.20866 14.1663 5.20866H8.33301Z" fill="currentColor"/>
<path d="M5.625 12.2743C5.625 11.8305 5.28922 11.4707 4.875 11.4707H2.67857C2.23477 11.4707 1.875 11.8305 1.875 12.2743C1.875 12.7181 2.23477 13.0779 2.67857 13.0779H4.875C5.28922 13.0779 5.625 12.7181 5.625 12.2743Z" fill="currentColor"/>
<path d="M5.625 7.6649C5.625 7.2211 5.28922 6.86133 4.875 6.86133H2.67857C2.23477 6.86133 1.875 7.2211 1.875 7.6649C1.875 8.1087 2.23477 8.46847 2.67857 8.46847H4.875C5.28922 8.46847 5.625 8.1087 5.625 7.6649Z" fill="currentColor"/>
</svg>

<svg xmlns="http://www.w3.org/2000/svg" width="20" height="20" fill="none" viewBox="0 0 20 20"><path fill="currentColor" d="M10.875 1.042c1.534 0 2.749 0 3.7.128.976.131 1.766.408 2.39 1.032.624.623.9 1.414 1.032 2.39.128.951.128 2.166.128 3.7v3.417c0 1.534 0 2.749-.128 3.7-.131.976-.408 1.766-1.032 2.39s-1.414.9-2.39 1.032c-.951.128-2.166.128-3.7.128h-.292c-1.534 0-2.749 0-3.7-.128-.976-.131-1.767-.408-2.39-1.032s-.9-1.414-1.032-2.39c-.128-.951-.128-2.167-.128-3.7V8.292c0-1.534 0-2.749.128-3.7.131-.976.408-1.767 1.032-2.39.623-.624 1.414-.9 2.39-1.032.951-.128 2.166-.128 3.7-.128zm-2.542 7.5a.625.625 0 0 0 0 1.25h2.917a.625.625 0 0 0 0-1.25zm0-3.333a.625.625 0 1 0 0 1.25h5.833a.625.625 0 1 0 0-1.25z"/><path fill="currentColor" d="M5.625 12.274c0-.443-.336-.803-.75-.803H2.679a.804.804 0 0 0 0 1.607h2.196c.414 0 .75-.36.75-.804m0-4.609c0-.444-.336-.804-.75-.804H2.679a.804.804 0 1 0 0 1.607h2.196c.414 0 .75-.36.75-.803"/></svg>
